X: 1
T: Golden Slippers    [G]
%O: from Viola Ruth
B: Lee Owens "Advanced Square Dance Figures of the West and Southwest" p.109
R: reel
Z: 2010 John Chambers <jc:trillian.mit.edu>
M: 2/4
L: 1/16
K: G
(GA) |\
"G"B2B2 BAGA | B2B2 B2(GA) |\
B2B2 c2B2 | B2"D7"A2 A2(FG |\
A2)A2 AGFG |
A2A2 A2(FG | A)Acc BBAA |\
[1 "G"A2[G4B,4] :|\
[2 "G"A2 G6 ||\
"G"D6 (GA) |
B2A2 GD3 |\
"C"[E6C6] (GA) | "D7"c2B2 AG3 |\
F3E F2G2 | A3^G A2((3DEF |\
"G"G3)F G2A2 | B8 |
[D6B,6] (GA) | B2A2 GD3 |\
"C"[E6C6] (AB) | c2B2 A2G2 |\
"D7"F3E F2G2 | A3A c3c |\
B3c B2A2 | "G"G6 |]

%%sep 1 1 500

